X: 29
T:Daly's Reel Variation 2
M:4/4
L:1/8
Q:120
C:Traditional
S:From Jay Ungar's "Contranova" Transcribed & Transposed from Bb by S.C.
R:Reel
K:G
B,D|:"G"G2 B-A GDB,D|GABG cBAG|"D"FAFA cAFA|cA(3BcB AFDF|!
"G"G2 B-A GDB,D|GABG cBAG|"D"FAFA cAFA|[1(3BcB AF "G"G2 B,D:|[2AFDF "G"G
ABd|]!
"C"e3 g ecAG|EDCD EGAc|d^cde dBGD|B,DGF GDB,D|"D"CDFG
A2A2|!
"G"B,DGA B2B2|[1"D"AFAB cAFA|"G"GFGA GABd:|[2"D"AFAB cAFD|"G"GABd G4|]
%  ABC2Win Version 2.1 8/22/99
